X:174
T:Baltimore
M:3/4
L:1/8
Q:1/4=3D120
K:D
AA|\
B4 A2|D4 F2|A4 GF|F4 E2|G4 E2|B,6    |
B,6  |C4 E2|A4 A2|A4 A2|A4 G2|E4 =3DF2 |F4 AA|
B4 A2|D4 F2|A4 GF|F4 E2|G4 E2|B,6    |
B,6  |C4 E2|A4 A2|A4 A2|A4 C2|F4  E2 |D4 A2|
B4 A2|D4 F2|A4 GF|F4 E2|G4 E2|B,4 B,2|
B,4C2|D4 E2|A4 A2|A4 A2|A4 C2|F4  E2 |D4 ||
